X:1
T:Toledo, 77.77.87.87
T:Toledo, 77.77.87.87
T:William James Kirkpatrick, 1882
T:Public Domain Courtesy of the Cyber Hymnal™
C:William James Kirkpatrick, 1882
Z:Public Domain
Z:Courtesy of the Cyber Hymnal™
%%score 1 ( 2 3 )
L:1/8
Q:1/4=100
M:4/4
K:Eb
V:1 treble 
V:2 bass 
V:3 bass 
V:1
 [EB]7/2 [Ec]/ [EB]>[EG] [B,E]>[B,F] | [EG]6 z2 | [DF]7/2 [DF]/ [DB]>[DF] [EG]>[FA] | [EG]6 z2 | %4
 [GB]7/2 [Ac]/ [GB]>[EG] [Ge]>[Gd] | [Ac]6 z2 | [DF]>[EG] [FA]>[Ac] [GB]2 [B,D]2 | [B,E]6 z2 | %8
 [Ge]7/2 [Ge]/ [Ad]>[FA] [Ad]>[Ac] | [GB]4 [EG]2 z2 | [GB]7/2 [GB]/ [Ac]>[GB] [Ac]>[GB] | %11
 [DF]4 [FA]3 z | [EG]7/2 [FA]/ [GB]>[EG] [Ge]>[Bd] | [Ac]4 !fermata![Ae]3 z | %14
 [DF]>[EG] [FA]>[Ac] [GB]2 [B,D]2 | [B,E]6 z2 |] %16
V:2
 [E,G,]7/2 [E,A,]/ [E,G,]>[E,B,] [E,G,]>[E,A,] | [E,B,]6 z2 | %2
 [B,,B,]7/2 [B,,B,]/ [B,,F,]>[B,,F,] [B,,B,]>[B,,B,] | [E,B,]6 z2 | %4
 [E,E]7/2 [E,E]/ [E,E]>[E,B,] [E,B,]>[E,E] | [A,,E]6 z2 | %6
 [B,,B,]>[B,,B,] [B,,B,]>[B,,B,] [B,,B,]2 [B,,B,]2 | [E,G,]6 z2 | %8
 [E,B,]7/2 [E,B,]/ [F,B,]>[F,B,] [B,,B,]>[B,,D] | [E,E]4 [E,B,]2 z2 | %10
 [E,E]7/2 [E,E]/ [E,E]>[E,E] [E,E]>[E,B,] | B,4 [B,,B,]3 z | %12
 [E,B,]7/2 [E,B,]/ [E,B,]>[E,B,] [E,B,]>[G,E] | [A,E]4 [A,,A,C]3 z | %14
 [B,,B,]>[B,,B,] [B,,B,]>[B,,B,] [B,,B,]2 [B,,B,]2 | [E,G,]6 z2 |] %16
V:3
 x8 | x8 | x8 | x8 | x8 | x8 | x8 | x8 | x8 | x8 | x8 | B,4 x4 | x8 | x8 | x8 | x8 |] %16

